apps/profe/src/routes/apps/calculadora-notas/i.svg

<!--
asi:Utilidades pluri-asignatura
title:Calculadora de notas
body:Una calculadora de notas medias, tanto aritméticas (simples) como ponderadas (con peso).
-->
<svg xmlns="http://www.w3.org/2000/svg" width="25px" height="25px" viewBox="0 0 90 86">
    <path
        d="M43.1534 1.43986C43.8365 -0.202726 46.1635 -0.202728 46.8466 1.43986L57.756 27.6692C58.0441 28.3617 58.6953 28.8348 59.4429 28.8947L87.7596 31.1649C89.5329 31.307 90.252 33.5201 88.9009 34.6774L67.3265 53.1582C66.7569 53.6461 66.5082 54.4116 66.6822 55.1411L73.2735 82.7735C73.6863 84.5039 71.8038 85.8717 70.2856 84.9444L46.0425 70.1368C45.4025 69.7458 44.5975 69.7458 43.9575 70.1368L19.7144 84.9444C18.1962 85.8717 16.3137 84.504 16.7265 82.7735L23.3178 55.1411C23.4918 54.4116 23.2431 53.6461 22.6735 53.1582L1.09909 34.6774C-0.251987 33.5201 0.467064 31.307 2.24037 31.1649L30.5571 28.8947C31.3047 28.8348 31.9559 28.3617 32.244 27.6692L43.1534 1.43986Z"
        fill="currentColor"
    />
</svg>

<!--
asi:Utilidades pluri-asignatura
title:Calculadora de notas
body:Una calculadora de notas medias, tanto aritméticas (simples) como ponderadas (con peso).
-->
<svg xmlns="http://www.w3.org/2000/svg" width="25" height="25" viewBox="0 0 90 86"><path fill="currentColor" d="M43.153 1.44c.684-1.643 3.01-1.643 3.694 0l10.909 26.23a2 2 0 0 0 1.687 1.225l28.317 2.27c1.773.142 2.492 2.355 1.14 3.512L67.327 53.158a2 2 0 0 0-.644 1.983l6.591 27.633c.413 1.73-1.47 3.098-2.987 2.17L46.042 70.137a2 2 0 0 0-2.084 0L19.714 84.944c-1.518.928-3.4-.44-2.987-2.17l6.59-27.633a2 2 0 0 0-.643-1.983L1.099 34.678C-.252 33.52.467 31.306 2.24 31.164l28.317-2.27a2 2 0 0 0 1.687-1.226z"/></svg>
